icons/gemini-dark.svg

<svg width="256" height="256" viewBox="0 0 256 256" fill="none" xmlns="http://www.w3.org/2000/svg">
<path d="M196 0H60C26.8629 0 0 26.8629 0 60V196C0 229.137 26.8629 256 60 256H196C229.137 256 256 229.137 256 196V60C256 26.8629 229.137 0 196 0Z" fill="#282828"/>
<path fill-rule="evenodd" clip-rule="evenodd" d="M169.536 105.727C170.449 107.822 170.906 110.061 170.906 112.443C170.906 110.061 171.348 107.822 172.232 105.727C173.145 103.632 174.372 101.809 175.912 100.259C177.453 98.7091 179.265 97.4892 181.347 96.5994C183.43 95.6809 185.656 95.2217 188.023 95.2217C185.656 95.2217 183.43 94.7768 181.347 93.887C179.265 92.9685 177.453 91.7343 175.912 90.1844C174.372 88.6344 173.145 86.8118 172.232 84.7165C171.348 82.6211 170.906 80.3823 170.906 78C170.906 80.3823 170.449 82.6211 169.536 84.7165C168.652 86.8118 167.439 88.6344 165.899 90.1844C164.358 91.7343 162.546 92.9685 160.463 93.887C158.381 94.7768 156.156 95.2217 153.787 95.2217C156.156 95.2217 158.381 95.6809 160.463 96.5994C162.546 97.4892 164.358 98.7091 165.899 100.259C167.439 101.809 168.652 103.632 169.536 105.727ZM30.4862 160.83C33.9783 162.277 37.7015 163 41.6557 163C45.6614 163 49.3076 162.354 52.5942 161.063C55.8809 159.771 58.7311 157.937 61.1447 155.561C63.5584 153.184 65.4328 150.368 66.768 147.113C68.1033 143.807 68.7709 140.19 68.7709 136.264V136.186C68.7709 135.463 68.7195 134.791 68.6168 134.171C68.5655 133.551 68.4884 132.905 68.3857 132.234H41.8098V138.666H61.838C61.6326 141.766 60.9136 144.453 59.6811 146.726C58.5 148.948 56.985 150.781 55.1363 152.228C53.3389 153.674 51.259 154.759 48.8967 155.483C46.5858 156.154 44.1721 156.491 41.6557 156.491C38.8826 156.491 36.1865 155.974 33.5674 154.94C30.9484 153.907 28.6117 152.409 26.5576 150.446C24.5548 148.482 22.9627 146.131 21.7816 143.393C20.6004 140.603 20.0099 137.478 20.0099 134.016C20.0099 130.555 20.5748 127.455 21.7046 124.716C22.8857 121.927 24.4777 119.576 26.4805 117.664C28.4833 115.701 30.7943 114.203 33.4134 113.169C36.0838 112.136 38.8313 111.619 41.6557 111.619C43.7613 111.619 45.7641 111.904 47.6642 112.472C49.5643 112.988 51.3104 113.738 52.9023 114.719C54.5457 115.701 55.9579 116.889 57.1391 118.284L61.9151 113.324C59.6041 110.689 56.6512 108.649 53.0564 107.202C49.513 105.755 45.7128 105.032 41.6557 105.032C37.7528 105.032 34.0553 105.755 30.5632 107.202C27.1225 108.649 24.0669 110.689 21.3965 113.324C18.7774 115.959 16.7232 119.033 15.2339 122.547C13.7446 126.06 13 129.883 13 134.016C13 138.149 13.7446 141.973 15.2339 145.486C16.7232 148.999 18.7774 152.073 21.3965 154.708C24.0155 157.343 27.0454 159.384 30.4862 160.83ZM82.5737 160.288C85.5516 162.096 88.9415 163 92.7418 163C97.055 163 100.675 162.019 103.603 160.055C106.53 158.092 108.764 155.612 110.305 152.616L104.45 149.825C103.372 151.789 101.882 153.442 99.9828 154.786C98.1334 156.129 95.8227 156.8 93.0494 156.8C90.8924 156.8 88.8131 156.258 86.8099 155.173C84.8075 154.088 83.164 152.46 81.8803 150.291C80.7711 148.416 80.1406 146.117 79.9902 143.393H110.921C110.973 143.135 110.998 142.799 110.998 142.386C111.05 141.973 111.075 141.585 111.075 141.223C111.075 137.297 110.305 133.81 108.764 130.761C107.275 127.713 105.118 125.336 102.293 123.632C99.4686 121.875 96.1056 120.997 92.2022 120.997C88.3504 120.997 84.9873 121.978 82.111 123.941C79.2353 125.853 77.0014 128.41 75.4094 131.614C73.8688 134.817 73.0985 138.304 73.0985 142.076C73.0985 146.106 73.9201 149.696 75.5635 152.848C77.2582 156 79.5948 158.48 82.5737 160.288ZM80.3826 137.736C80.6247 136.586 80.9704 135.501 81.4176 134.481C82.3938 132.26 83.8059 130.503 85.6546 129.211C87.5548 127.868 89.7632 127.196 92.2791 127.196C94.3846 127.196 96.1564 127.558 97.5945 128.281C99.0327 128.953 100.213 129.831 101.138 130.916C102.062 132.001 102.73 133.164 103.141 134.404C103.552 135.592 103.782 136.703 103.834 137.736H80.3826ZM116.966 122.237V161.76H123.899V139.751C123.899 137.581 124.335 135.54 125.209 133.629C126.082 131.717 127.289 130.193 128.829 129.056C130.37 127.868 132.116 127.274 134.067 127.274C136.789 127.274 138.894 128.075 140.384 129.676C141.924 131.226 142.695 133.887 142.695 137.659V161.76H149.55V139.596C149.55 137.426 149.987 135.411 150.86 133.551C151.733 131.64 152.94 130.115 154.481 128.979C156.021 127.842 157.767 127.274 159.719 127.274C162.492 127.274 164.623 128.049 166.112 129.599C167.653 131.149 168.423 133.81 168.423 137.581V161.76H175.279V136.419C175.279 131.82 174.149 128.101 171.89 125.259C169.681 122.417 166.215 120.997 161.49 120.997C158.358 120.997 155.662 121.72 153.402 123.167C151.142 124.613 149.345 126.447 148.01 128.669C147.085 126.396 145.57 124.561 143.465 123.167C141.411 121.72 138.92 120.997 135.993 120.997C134.35 120.997 132.706 121.332 131.063 122.004C129.471 122.624 128.059 123.476 126.826 124.561C125.594 125.595 124.618 126.757 123.899 128.049H123.591V122.237H116.966ZM181.518 122.237V161.76H188.374V122.237H181.518ZM181.442 113.867C182.417 114.797 183.573 115.262 184.908 115.262C186.294 115.262 187.45 114.797 188.374 113.867C189.299 112.885 189.761 111.723 189.761 110.379C189.761 108.984 189.299 107.822 188.374 106.892C187.45 105.91 186.294 105.42 184.908 105.42C183.573 105.42 182.417 105.91 181.442 106.892C180.517 107.822 180.055 108.984 180.055 110.379C180.055 111.723 180.517 112.885 181.442 113.867ZM194.813 122.237V161.76H201.746V139.751C201.746 137.633 202.182 135.644 203.056 133.784C203.98 131.872 205.238 130.322 206.83 129.134C208.422 127.894 210.297 127.274 212.453 127.274C215.329 127.274 217.641 128.075 219.386 129.676C221.132 131.226 222.005 133.887 222.005 137.659V161.76H228.938V136.419C228.938 131.769 227.706 128.049 225.241 125.259C222.775 122.417 219.155 120.997 214.379 120.997C211.555 120.997 208.987 121.694 206.676 123.089C204.365 124.484 202.696 126.137 201.669 128.049H201.361V122.237H194.813ZM234.757 122.237V161.76H241.613V122.237H234.757ZM234.681 113.867C235.656 114.797 236.812 115.262 238.147 115.262C239.533 115.262 240.689 114.797 241.613 113.867C242.538 112.885 243 111.723 243 110.379C243 108.984 242.538 107.822 241.613 106.892C240.689 105.91 239.533 105.42 238.147 105.42C236.812 105.42 235.656 105.91 234.681 106.892C233.757 107.822 233.294 108.984 233.294 110.379C233.294 111.723 233.757 112.885 234.681 113.867Z" fill="url(#paint0_linear_583_14)"/>
<defs>
<linearGradient id="paint0_linear_583_14" x1="40.8748" y1="150.667" x2="134.259" y2="100.162" gradientUnits="userSpaceOnUse">
<stop stop-color="#439DDF"/>
<stop offset="0.524208" stop-color="#4F87ED"/>
<stop offset="0.781452" stop-color="#9476C5"/>
<stop offset="0.888252" stop-color="#BC688E"/>
<stop offset="1" stop-color="#D6645D"/>
</linearGradient>
</defs>
</svg>

<svg xmlns="http://www.w3.org/2000/svg" width="256" height="256" fill="none"><path fill="#282828" d="M196 0H60C26.863 0 0 26.863 0 60v136c0 33.137 26.863 60 60 60h136c33.137 0 60-26.863 60-60V60c0-33.137-26.863-60-60-60"/><path fill="url(#paint0_linear_583_14)" fill-rule="evenodd" d="M169.536 105.727q1.37 3.143 1.37 6.716 0-3.573 1.326-6.716 1.37-3.143 3.68-5.468 2.312-2.325 5.435-3.66 3.125-1.377 6.676-1.377-3.551 0-6.676-1.335-3.123-1.377-5.435-3.703-2.31-2.325-3.68-5.468-1.326-3.143-1.326-6.716 0 3.573-1.37 6.716-1.327 3.144-3.637 5.468-2.312 2.325-5.436 3.703-3.123 1.335-6.676 1.335 3.553 0 6.676 1.377 3.124 1.335 5.436 3.66 2.31 2.325 3.637 5.468M30.486 160.83q5.239 2.17 11.17 2.17 6.008 0 10.938-1.937t8.55-5.502q3.621-3.566 5.624-8.448 2.003-4.96 2.003-10.849v-.078q0-1.085-.154-2.015a28 28 0 0 0-.231-1.937H41.81v6.432h20.028q-.307 4.65-2.157 8.06-1.771 3.332-4.545 5.502-2.696 2.169-6.24 3.255a25.8 25.8 0 0 1-7.24 1.008q-4.16 0-8.089-1.551a21.5 21.5 0 0 1-7.01-4.494q-3.003-2.946-4.775-7.053-1.773-4.184-1.772-9.377 0-5.191 1.695-9.3 1.77-4.184 4.776-7.052a20.6 20.6 0 0 1 6.932-4.495 22.7 22.7 0 0 1 8.243-1.55q3.158 0 6.008.853a19.8 19.8 0 0 1 5.238 2.247 16.8 16.8 0 0 1 4.237 3.565l4.776-4.96q-3.466-3.952-8.859-6.122-5.314-2.17-11.4-2.17-5.854 0-11.093 2.17a28.9 28.9 0 0 0-9.166 6.122q-3.93 3.952-6.163 9.223Q13 127.817 13 134.016q0 6.2 2.234 11.47t6.163 9.222a28 28 0 0 0 9.09 6.122m52.088-.542Q87.042 163 92.742 163q6.47 0 10.861-2.945 4.39-2.945 6.702-7.439l-5.855-2.791q-1.618 2.945-4.467 4.961-2.774 2.014-6.934 2.014-3.235 0-6.24-1.627-3.002-1.628-4.929-4.882-1.664-2.812-1.89-6.898h30.931q.078-.387.077-1.007.078-.62.077-1.163 0-5.889-2.311-10.462-2.234-4.572-6.471-7.129-4.236-2.635-10.09-2.635-5.779 0-10.092 2.944-4.314 2.868-6.702 7.673-2.31 4.804-2.31 10.462 0 6.044 2.465 10.772 2.54 4.728 7.01 7.44m-2.191-22.552a16.6 16.6 0 0 1 1.035-3.255q1.464-3.332 4.237-5.27 2.85-2.015 6.624-2.015 3.158 0 5.316 1.085 2.156 1.008 3.543 2.635 1.386 1.628 2.003 3.488.616 1.782.693 3.332zm36.583-15.499v39.523h6.933v-22.009q0-3.255 1.31-6.122t3.62-4.573q2.312-1.782 5.238-1.782 4.083 0 6.317 2.402 2.31 2.325 2.311 7.983v24.101h6.855v-22.164q0-3.255 1.31-6.045 1.31-2.867 3.621-4.572t5.238-1.705q4.16 0 6.393 2.325 2.311 2.325 2.311 7.982v24.179h6.856v-25.341q0-6.898-3.389-11.16-3.313-4.263-10.4-4.262-4.698 0-8.088 2.17t-5.392 5.502q-1.387-3.41-4.545-5.502-3.081-2.17-7.472-2.17-2.465 0-4.93 1.007a14.1 14.1 0 0 0-4.237 2.557q-1.848 1.55-2.927 3.488h-.308v-5.812zm64.552 0v39.523h6.856v-39.523zm-.076-8.37q1.463 1.395 3.466 1.395 2.08 0 3.466-1.395 1.387-1.473 1.387-3.488 0-2.092-1.387-3.487-1.387-1.472-3.466-1.472-2.003 0-3.466 1.472-1.387 1.395-1.387 3.487 0 2.015 1.387 3.488m13.371 8.37v39.523h6.933v-22.009q0-3.177 1.31-5.967 1.386-2.868 3.774-4.65 2.389-1.86 5.623-1.86 4.315 0 6.933 2.402 2.619 2.325 2.619 7.983v24.101h6.933v-25.341q0-6.975-3.697-11.16-3.698-4.263-10.862-4.262-4.236 0-7.703 2.092-3.466 2.092-5.007 4.96h-.308v-5.812zm39.944 0v39.523h6.856v-39.523zm-.076-8.37q1.463 1.395 3.466 1.395 2.08 0 3.466-1.395 1.387-1.473 1.387-3.488 0-2.092-1.387-3.487-1.387-1.472-3.466-1.472-2.003 0-3.466 1.472-1.387 1.395-1.387 3.487 0 2.015 1.387 3.488" clip-rule="evenodd"/><defs><linearGradient id="paint0_linear_583_14" x1="40.875" x2="134.259" y1="150.667" y2="100.162" gradientUnits="userSpaceOnUse"><stop stop-color="#439DDF"/><stop offset=".524" stop-color="#4F87ED"/><stop offset=".781" stop-color="#9476C5"/><stop offset=".888" stop-color="#BC688E"/><stop offset="1" stop-color="#D6645D"/></linearGradient></defs></svg>
